icons/ansi-a-landscape-16.svg

<?xml version="1.0" encoding="UTF-8"?><svg id="icons" xmlns="http://www.w3.org/2000/svg" viewBox="0 0 16 16"><defs><style>.cls-1{fill:none;}.cls-1,.cls-2,.cls-3{stroke-width:0px;}.cls-2{opacity:.25;}</style></defs><rect class="cls-1" width="16" height="16"/><path class="cls-2" d="M11,4H1v-2h10v2Z"/><path class="cls-3" d="M12.40039,1H0v13h3v-1H1V2h10v4h4v7h-3v1h4V4.59961l-3.59961-3.59961ZM15,5h-3v-3h.31049l2.68951,2.68951v.31049ZM8.00014,9h-1.00024l-2.99989,7h1.0005l.85699-2h3.28503l.85699,2h1.00047l-2.99986-7ZM6.28603,13l1.21397-2.83301,1.21401,2.83301h-2.42798Z"/></svg>

<svg xmlns="http://www.w3.org/2000/svg" viewBox="0 0 16 16"><path stroke-width="0" fill="none" d="M0 0h16v16H0z"/><path d="M11 4H1V2h10v2z" opacity=".25" stroke-width="0"/><path d="M12.4 1H0v13h3v-1H1V2h10v4h4v7h-3v1h4V4.6L12.4 1zM15 5h-3V2h.31L15 4.69V5zM8 9H7l-3 7h1l.857-2h3.286L10 16h1L8 9zm-1.714 4L7.5 10.167 8.714 13H6.286z" stroke-width="0"/></svg>
